images/aWETH.svg

<svg height="250" viewBox="0 0 250 250" width="250" xmlns="http://www.w3.org/2000/svg" xmlns:xlink="http://www.w3.org/1999/xlink"><linearGradient id="a" gradientUnits="userSpaceOnUse" x1="210.75" x2="51.5" y1="33.75" y2="221.5"><stop offset="0" stop-color="#b6509e"/><stop offset="1" stop-color="#2ebac6"/></linearGradient><path d="m250 125c0 69.035156-55.964844 125-125 125s-125-55.964844-125-125 55.964844-125 125-125 125 55.964844 125 125zm0 0" fill="#fff"/><path d="m125 250c-8.460938.003906-16.902344-.847656-25.195312-2.539062-15.988282-3.273438-31.175782-9.667969-44.699219-18.808594-20.09375-13.566406-35.828125-32.671875-45.285157-54.996094-3.195312-7.5625-5.632812-15.417969-7.28125-23.460938-3.386718-16.625-3.386718-33.761718 0-50.382812 3.273438-15.988281 9.664063-31.179688 18.808594-44.699219 13.566406-20.097656 32.671875-35.828125 54.996094-45.289062 7.5625-3.199219 15.417969-5.636719 23.460938-7.285157 16.625-3.386718 33.761718-3.386718 50.382812 0 15.988281 3.273438 31.179688 9.664063 44.699219 18.808594 20.097656 13.566406 35.828125 32.671875 45.289062 54.996094 3.195313 7.5625 5.636719 15.417969 7.285157 23.460938 3.386718 16.625 3.386718 33.761718 0 50.382812-3.273438 15.992188-9.664063 31.179688-18.808594 44.699219-13.566406 20.09375-32.671875 35.828125-54.996094 45.285156-7.5625 3.199219-15.417969 5.640625-23.460938 7.289063-8.292968 1.691406-16.734374 2.542968-25.195312 2.539062zm0-236.609375c-7.554688 0-15.089844.757813-22.492188 2.269531-14.277343 2.921875-27.839843 8.628906-39.910156 16.792969-17.941406 12.113281-31.984375 29.171875-40.429687 49.105469-2.855469 6.75-5.03125 13.769531-6.503907 20.949218-3.023437 14.839844-3.023437 30.140626 0 44.984376 2.925782 14.277343 8.632813 27.835937 16.796876 39.90625 12.113281 17.945312 29.171874 31.992187 49.105468 40.4375 6.75 2.855468 13.769532 5.03125 20.949219 6.503906 14.84375 3.023437 30.144531 3.023437 44.984375 0 14.277344-2.925782 27.839844-8.632813 39.910156-16.796875 17.9375-12.113281 31.976563-29.171875 40.421875-49.101563 2.855469-6.75 5.03125-13.769531 6.503907-20.949218 3.023437-14.84375 3.023437-30.144532 0-44.984376-2.925782-14.277343-8.632813-27.835937-16.796876-39.90625-12.113281-17.941406-29.167968-31.988281-49.097656-40.433593-6.75-2.855469-13.769531-5.03125-20.949218-6.503907-7.402344-1.511718-14.9375-2.273437-22.492188-2.273437zm0 0" fill="url(#a)"/><path d="m97.363281 194.90625c35.78125 0 35.78125-.53125 41.847657-2.332031 7.929687-2.355469-22.382813-23.339844-41.847657-23.339844-19.464843 0-35.242187 5.75-35.242187 12.835937 0 7.089844 15.777344 12.835938 35.242187 12.835938zm0 0"/><path d="m178.613281 85.753906 1.644531 1.773438-1.4375 1.945312c-46.667968 63.09375-73.550781 91.664063-84.957031 87.832032-6.945312-2.335938-13.914062-9.351563-20.878906-19.546876-2.449219-3.582031-4.75-7.351562-6.835937-11.105468-1.394532-2.5-2.574219-4.78125-3.183594-6.066406-.640625-1.253907-1.097656-2.589844-1.367188-3.972657l-.03125-.160156c-.109375-.5625-.148437-.738281-.230468-1.046875-6.550782-24.679688 2.285156-50.886719 22.445312-66.558594 20.160156-15.667968 47.734375-17.769531 70.035156-5.328125l.242188.152344c7.683594 5.359375 15.871094 12.71875 24.554687 22.082031zm-27.785156-17.207031c-20.257813-11.21875-45.257813-9.257813-63.523437 4.980469-18.265626 14.238281-26.269532 38-20.339844 60.386718.125.476563.183594.746094.316406 1.433594l.027344.140625c.179687.902344.484375 1.777344.914062 2.59375.558594 1.171875 1.683594 3.339844 3.015625 5.734375 2.011719 3.605469 4.21875 7.230469 6.558594 10.65625 6.296875 9.207032 12.539063 15.496094 17.925781 17.304688 7.183594 2.414062 34.222656-26.210938 76.957032-83.816406-6.617188-7.183594-13.9375-13.6875-21.851563-19.414063zm0 0"/><path d="m150.832031 68.546875c-20.261719-11.21875-45.261719-9.257813-63.527343 4.980469-18.265626 14.238281-26.269532 38-20.339844 60.386718.128906.476563.183594.746094.316406 1.433594l.027344.140625c.179687.902344.484375 1.777344.917968 2.59375.558594 1.171875 1.679688 3.339844 3.011719 5.734375 2.011719 3.605469 4.21875 7.230469 6.5625 10.65625 6.292969 9.207032 12.535157 15.496094 17.921875 17.304688 7.183594 2.414062 34.226563-26.207032 76.960938-83.816406-6.621094-7.183594-13.941406-13.6875-21.851563-19.414063zm0 0" fill="#ec1c79"/><path d="m134.46875 194.324219c-35.125 0-63.597656-28.472657-63.597656-63.59375 0-35.125 28.472656-63.597657 63.597656-63.597657 35.121094 0 63.59375 28.472657 63.59375 63.597657 0 35.121093-28.472656 63.59375-63.59375 63.59375zm0-5.835938c31.898438 0 57.757812-25.859375 57.757812-57.757812 0-31.902344-25.859374-57.761719-57.761718-57.761719-31.898438 0-57.757813 25.859375-57.757813 57.761719 0 31.898437 25.859375 57.757812 57.761719 57.757812zm0 0"/><path d="m134.464844 188.488281c31.898437.003907 57.761718-25.855469 57.761718-57.757812 0-31.898438-25.859374-57.757813-57.757812-57.761719-31.898438 0-57.761719 25.859375-57.761719 57.757812 0 31.898438 25.859375 57.761719 57.757813 57.761719zm0 0" fill="#fff"/><path d="m91.261719 142.558594-7.644531-23.03125h6.695312l3.984375 13.230468 4.414063-13.296874h5.453124l4.414063 13.296874 3.980469-13.230468h6.570312l-7.644531 23.03125h-5.519531l-4.609375-13.164063-4.574219 13.164063zm30.378906-.160156v-22.871094h18.402344v5.390625h-12.125v3.460937h10.980469v5h-10.980469v3.628906h12.285156v5.390626zm27.382813 0v-17.316407h-6.859376v-5.554687h20.0625v5.554687h-6.863281v17.316407zm15.976562 0v-22.871094h6.335938v8.558594h8.136718v-8.558594h6.339844v22.871094h-6.339844v-8.691407h-8.136718v8.691407zm0 0" fill-rule="evenodd"/><path d="m62.992188 112.648438c-1.582032-.824219-2.214844-2.765626-1.414063-4.363282.796875-1.59375 2.730469-2.257812 4.335937-1.480468l9.335938 4.667968c1.0625.507813 1.769531 1.554688 1.84375 2.730469.078125 1.175781-.484375 2.304687-1.472656 2.949219-.988282.644531-2.246094.707031-3.292969.164062zm0 0"/><path d="m61.921875 128.125c-1.089844-.46875-1.835937-1.492188-1.957031-2.671875-.117188-1.179687.414062-2.332031 1.386718-3.007813.976563-.679687 2.238282-.773437 3.304688-.253906l9.335938 4.308594c1.085937.472656 1.835937 1.496094 1.953124 2.675781.117188 1.179688-.414062 2.332031-1.386718 3.007813-.972656.675781-2.238282.773437-3.300782.25zm0 0"/></svg>

<svg xmlns="http://www.w3.org/2000/svg" xmlns:xlink="http://www.w3.org/1999/xlink" width="250px" height="250px" viewBox="0 0 250 250" version="1.1">
<defs>
<linearGradient id="linear0" gradientUnits="userSpaceOnUse" x1="0.843" y1="0.135" x2="0.206" y2="0.886" gradientTransform="matrix(250,0,0,250,0,0)">
<stop offset="0" style="stop-color:rgb(71.372551%,31.37255%,61.960787%);stop-opacity:1;"/>
<stop offset="1" style="stop-color:rgb(18.039216%,72.941178%,77.64706%);stop-opacity:1;"/>
</linearGradient>
</defs>
<g id="surface1">
<path style=" stroke:none;fill-rule:nonzero;fill:rgb(100%,100%,100%);fill-opacity:1;" d="M 250 125 C 250 194.035156 194.035156 250 125 250 C 55.964844 250 0 194.035156 0 125 C 0 55.964844 55.964844 0 125 0 C 194.035156 0 250 55.964844 250 125 Z M 250 125 "/>
<path style=" stroke:none;fill-rule:nonzero;fill:url(#linear0);" d="M 125 250 C 116.539062 250.003906 108.097656 249.152344 99.804688 247.460938 C 83.816406 244.1875 68.628906 237.792969 55.105469 228.652344 C 35.011719 215.085938 19.277344 195.980469 9.820312 173.65625 C 6.625 166.09375 4.1875 158.238281 2.539062 150.195312 C -0.847656 133.570312 -0.847656 116.433594 2.539062 99.8125 C 5.8125 83.824219 12.203125 68.632812 21.347656 55.113281 C 34.914062 35.015625 54.019531 19.285156 76.34375 9.824219 C 83.90625 6.625 91.761719 4.1875 99.804688 2.539062 C 116.429688 -0.847656 133.566406 -0.847656 150.1875 2.539062 C 166.175781 5.8125 181.367188 12.203125 194.886719 21.347656 C 214.984375 34.914062 230.714844 54.019531 240.175781 76.34375 C 243.371094 83.90625 245.8125 91.761719 247.460938 99.804688 C 250.847656 116.429688 250.847656 133.566406 247.460938 150.1875 C 244.1875 166.179688 237.796875 181.367188 228.652344 194.886719 C 215.085938 214.980469 195.980469 230.714844 173.65625 240.171875 C 166.09375 243.371094 158.238281 245.8125 150.195312 247.460938 C 141.902344 249.152344 133.460938 250.003906 125 250 Z M 125 13.390625 C 117.445312 13.390625 109.910156 14.148438 102.507812 15.660156 C 88.230469 18.582031 74.667969 24.289062 62.597656 32.453125 C 44.65625 44.566406 30.613281 61.625 22.167969 81.558594 C 19.3125 88.308594 17.136719 95.328125 15.664062 102.507812 C 12.640625 117.347656 12.640625 132.648438 15.664062 147.492188 C 18.589844 161.769531 24.296875 175.328125 32.460938 187.398438 C 44.574219 205.34375 61.632812 219.390625 81.566406 227.835938 C 88.316406 230.691406 95.335938 232.867188 102.515625 234.339844 C 117.359375 237.363281 132.660156 237.363281 147.5 234.339844 C 161.777344 231.414062 175.339844 225.707031 187.410156 217.542969 C 205.347656 205.429688 219.386719 188.371094 227.832031 168.441406 C 230.6875 161.691406 232.863281 154.671875 234.335938 147.492188 C 237.359375 132.648438 237.359375 117.347656 234.335938 102.507812 C 231.410156 88.230469 225.703125 74.671875 217.539062 62.601562 C 205.425781 44.660156 188.371094 30.613281 168.441406 22.167969 C 161.691406 19.3125 154.671875 17.136719 147.492188 15.664062 C 140.089844 14.152344 132.554688 13.390625 125 13.390625 Z M 125 13.390625 "/>
<path style=" stroke:none;fill-rule:nonzero;fill:rgb(0%,0%,0%);fill-opacity:1;" d="M 97.363281 194.90625 C 133.144531 194.90625 133.144531 194.375 139.210938 192.574219 C 147.140625 190.21875 116.828125 169.234375 97.363281 169.234375 C 77.898438 169.234375 62.121094 174.984375 62.121094 182.070312 C 62.121094 189.160156 77.898438 194.90625 97.363281 194.90625 Z M 97.363281 194.90625 "/>
<path style=" stroke:none;fill-rule:nonzero;fill:rgb(0%,0%,0%);fill-opacity:1;" d="M 178.613281 85.753906 L 180.257812 87.527344 L 178.820312 89.472656 C 132.152344 152.566406 105.269531 181.136719 93.863281 177.304688 C 86.917969 174.96875 79.949219 167.953125 72.984375 157.757812 C 70.535156 154.175781 68.234375 150.40625 66.148438 146.652344 C 64.753906 144.152344 63.574219 141.871094 62.964844 140.585938 C 62.324219 139.332031 61.867188 137.996094 61.597656 136.613281 L 61.566406 136.453125 C 61.457031 135.890625 61.417969 135.714844 61.335938 135.40625 C 54.785156 110.726562 63.621094 84.519531 83.78125 68.847656 C 103.941406 53.179688 131.515625 51.078125 153.816406 63.519531 L 154.058594 63.671875 C 161.742188 69.03125 169.929688 76.390625 178.613281 85.753906 Z M 150.828125 68.546875 C 130.570312 57.328125 105.570312 59.289062 87.304688 73.527344 C 69.039062 87.765625 61.035156 111.527344 66.964844 133.914062 C 67.089844 134.390625 67.148438 134.660156 67.28125 135.347656 L 67.308594 135.488281 C 67.488281 136.390625 67.792969 137.265625 68.222656 138.082031 C 68.78125 139.253906 69.90625 141.421875 71.238281 143.816406 C 73.25 147.421875 75.457031 151.046875 77.796875 154.472656 C 84.09375 163.679688 90.335938 169.96875 95.722656 171.777344 C 102.90625 174.191406 129.945312 145.566406 172.679688 87.960938 C 166.0625 80.777344 158.742188 74.273438 150.828125 68.546875 Z M 150.828125 68.546875 "/>
<path style=" stroke:none;fill-rule:nonzero;fill:rgb(92.54902%,10.980392%,47.450981%);fill-opacity:1;" d="M 150.832031 68.546875 C 130.570312 57.328125 105.570312 59.289062 87.304688 73.527344 C 69.039062 87.765625 61.035156 111.527344 66.964844 133.914062 C 67.09375 134.390625 67.148438 134.660156 67.28125 135.347656 L 67.308594 135.488281 C 67.488281 136.390625 67.792969 137.265625 68.226562 138.082031 C 68.785156 139.253906 69.90625 141.421875 71.238281 143.816406 C 73.25 147.421875 75.457031 151.046875 77.800781 154.472656 C 84.09375 163.679688 90.335938 169.96875 95.722656 171.777344 C 102.90625 174.191406 129.949219 145.570312 172.683594 87.960938 C 166.0625 80.777344 158.742188 74.273438 150.832031 68.546875 Z M 150.832031 68.546875 "/>
<path style=" stroke:none;fill-rule:nonzero;fill:rgb(0%,0%,0%);fill-opacity:1;" d="M 134.46875 194.324219 C 99.34375 194.324219 70.871094 165.851562 70.871094 130.730469 C 70.871094 95.605469 99.34375 67.132812 134.46875 67.132812 C 169.589844 67.132812 198.0625 95.605469 198.0625 130.730469 C 198.0625 165.851562 169.589844 194.324219 134.46875 194.324219 Z M 134.46875 188.488281 C 166.367188 188.488281 192.226562 162.628906 192.226562 130.730469 C 192.226562 98.828125 166.367188 72.96875 134.464844 72.96875 C 102.566406 72.96875 76.707031 98.828125 76.707031 130.730469 C 76.707031 162.628906 102.566406 188.488281 134.46875 188.488281 Z M 134.46875 188.488281 "/>
<path style=" stroke:none;fill-rule:nonzero;fill:rgb(100%,100%,100%);fill-opacity:1;" d="M 134.464844 188.488281 C 166.363281 188.492188 192.226562 162.632812 192.226562 130.730469 C 192.226562 98.832031 166.367188 72.972656 134.46875 72.96875 C 102.570312 72.96875 76.707031 98.828125 76.707031 130.726562 C 76.707031 162.625 102.566406 188.488281 134.464844 188.488281 Z M 134.464844 188.488281 "/>
<path style=" stroke:none;fill-rule:evenodd;fill:rgb(0%,0%,0%);fill-opacity:1;" d="M 91.261719 142.558594 L 83.617188 119.527344 L 90.3125 119.527344 L 94.296875 132.757812 L 98.710938 119.460938 L 104.164062 119.460938 L 108.578125 132.757812 L 112.558594 119.527344 L 119.128906 119.527344 L 111.484375 142.558594 L 105.964844 142.558594 L 101.355469 129.394531 L 96.78125 142.558594 Z M 121.640625 142.398438 L 121.640625 119.527344 L 140.042969 119.527344 L 140.042969 124.917969 L 127.917969 124.917969 L 127.917969 128.378906 L 138.898438 128.378906 L 138.898438 133.378906 L 127.917969 133.378906 L 127.917969 137.007812 L 140.203125 137.007812 L 140.203125 142.398438 Z M 149.023438 142.398438 L 149.023438 125.082031 L 142.164062 125.082031 L 142.164062 119.527344 L 162.226562 119.527344 L 162.226562 125.082031 L 155.363281 125.082031 L 155.363281 142.398438 Z M 165 142.398438 L 165 119.527344 L 171.335938 119.527344 L 171.335938 128.085938 L 179.472656 128.085938 L 179.472656 119.527344 L 185.8125 119.527344 L 185.8125 142.398438 L 179.472656 142.398438 L 179.472656 133.707031 L 171.335938 133.707031 L 171.335938 142.398438 Z M 165 142.398438 "/>
<path style=" stroke:none;fill-rule:nonzero;fill:rgb(0%,0%,0%);fill-opacity:1;" d="M 62.992188 112.648438 C 61.410156 111.824219 60.777344 109.882812 61.578125 108.285156 C 62.375 106.691406 64.308594 106.027344 65.914062 106.804688 L 75.25 111.472656 C 76.3125 111.980469 77.019531 113.027344 77.09375 114.203125 C 77.171875 115.378906 76.609375 116.507812 75.621094 117.152344 C 74.632812 117.796875 73.375 117.859375 72.328125 117.316406 Z M 62.992188 112.648438 "/>
<path style=" stroke:none;fill-rule:nonzero;fill:rgb(0%,0%,0%);fill-opacity:1;" d="M 61.921875 128.125 C 60.832031 127.65625 60.085938 126.632812 59.964844 125.453125 C 59.847656 124.273438 60.378906 123.121094 61.351562 122.445312 C 62.328125 121.765625 63.589844 121.671875 64.65625 122.191406 L 73.992188 126.5 C 75.078125 126.972656 75.828125 127.996094 75.945312 129.175781 C 76.0625 130.355469 75.53125 131.507812 74.558594 132.183594 C 73.585938 132.859375 72.320312 132.957031 71.257812 132.433594 Z M 61.921875 128.125 "/>
</g>
</svg>
